X:1
T:Thy Word
T:Thy Word
T:Arr. from Rodney by Isaac H. Meredith
T:Anna Richarde, 1903
T:Public Domain Courtesy of the Cyber Hymnal™
T:Public Domain Courtesy of the Cyber Hymnal™
T:Public Domain Courtesy of the Cyber Hymnal™
C:Arr. from Rodney by Isaac H. Meredith
Z:Public Domain
Z:Courtesy of the Cyber Hymnal™
%%score ( 1 2 ) 3 ( 4 5 )
L:1/8
Q:1/4=95
M:4/4
K:C
V:1 treble 
V:2 treble 
V:3 treble 
V:4 bass 
V:5 bass 
V:1
 G"^Animato" | [Ec]3 G [Ec]3 G | [Gce]2 [FBd]2 [EAc]2 [c^da]2 | [cea]gec G2 [FGBd]2 | [EGc]6 z || %5
w: |||||
w: |||||
w: |||||
 G x5 | [Ec]3 G [Ec]3 G | [CE]2 [B,D]2 C3 [B,D] | [CE]2 [EG]2 [FA]2 [GB][Gc] | %9
w: 1.~Thy|Word my lamp in|dark- est night, Il-|lumes my path with its|
w: 2.~Give|heed! give heed! O|child of light, And|shun the sha- dow of|
w: 3.~All|hail! all hail! thou|book di- vine! From|whence the light on my|
 [^Fd]2 [Fc]2 [GB]3 G | [Ec]3 G [Ec]3 G | [CE]2 [B,D]2 C3 [B,D] | [CE]2 [D^F]2 [DG]2 [EA][Ec] | %13
w: heav’n- ly light; This|pre- cious lamp, my|trea- sure dear, With|fade- less ray doth my|
w: sin’s dark night! God’s|Word your trem- bling|steps will show, The|nar- row path where your|
w: path doth shine! The|Spir- it will our|teach- er be, And|won- drous mean- ings our|
 [DB]2 [CA]2 [B,G]3"^Girls’ Voices in Duet" G | [Fd]2 [Fd]2 [E^c]2 [Ec]2 | [Fd]2 [Ge]2 [Fd]3 [FG] | %16
w: spir- it cheer. My|hope is based up-|on that Word, That|
w: feet must go. O|watch and pray, and|trust your Lord! Put|
w: hearts shall see. The|light of Heav’n, so|pass- ing fair, Will|
 [Ee]2 [Ge]2 [^F^d]2 [Fd]2 | [Ge]2 ([Ec][FA]) [EG]3"^All Voices in Parts" [EG] | %18
w: pre- cious mes- sage|from my * Lord; Tho’|
w: full re- li- ance|on His * Word; No|
w: shine a- bout us|ev- ery- * where. We|
 [E^G]2 [EG]2 [^DB]3 [DB] | [E^G]2 [EG]2 [^DB]3 [DB] | [Ee]2 [^DB]2 [E^G]2 [EB][EA] | %21
w: storms a- rise, it|stands se- cure, For-|ev- er change- less it|
w: o- ther book can|show the way From|earth- ly night to the|
w: hear the lang- uage|of the skies! The|ci- ty shin- eth be-|
 [E^G]2 [^D^F]2{EEE} E4 x3 |[M:6/8] !fermata![B,FG]6 |: C3 C2 C | (E G4) G | A^GA cBc | %26
w: shall en- dure.|||||
w: land of day.||Guid- ed a-|right, * If|led by the beams of that|
w: fore our eyes.|||||
 (e c3- c2) | BcB AE^F | G3 d3 | BcB AE^F | G6 :| cBA cBA | G3 E3 | DBA G!fermata!ed | %34
w: ||||||||
w: light, * *|Safe- ly and sure- ly we|jour- ney|Up to yon ci- ty so|bright.|Safe- ly and sure- ly we|jour- ney|Up to yon ci- ty so|
w: ||||||||
 c3- !fermata!c2 |] %35
w: |
w: bright. *|
w: |
V:2
 G | x3 G x2 G x | x8 | x8 | x7 || G x5 | x3 G x2 G x | x4 C3 x | x8 | x7 G | x3 G x4 | x4 C3 x | %12
 x8 | x7 G | x8 | x8 | x8 | x8 | x8 | x8 | x8 | x7{EEE} E4 |[M:6/8] x6 |: x6 | x6 | x6 | x6 | x6 | %28
 x6 | x6 | x6 :| x6 | x6 | x6 | x5 |] %35
V:3
 (z |[M:6/8] z6) x2 | z [G,CE][G,CE] z [G,CE][G,CE] x2 | z ([G,CE][G,CE] [G,CE][G,CE][G,CE]) x2 | %4
 z [A,CF][A,CF] z [A,CF][A,CF] x || z ([G,CE][G,CE]) z ([CEG][CEG]) | %6
 z [B,DG][B,DG] z [CD^F][CDF] x2 | z [B,DG][B,DG] z [B,DG][B,DG] x2 | %8
 z [B,DG][B,DG] z [CD^F][CDF] x2 | [B,DG]6 x2 | z [CDA][CDA] z [^CDA][CDA] x2 | %11
 z [CEG][CEG] z [CEG][CEG] x2 | [A,C^F]3 !fermata![G,B,=F]3 x2 | %13
 ([G,CE][G,CE][G,CE] !fermata![G,CE]2) x3 | x8 | x8 | x8 | x8 | x8 | x8 | x8 | x11 | x6 |: x6 | %24
 x6 | x6 | x6 | x6 | x6 | x6 | x6 :| x6 | x6 | x6 | x5 |] %35
V:4
 G, | [C,G,]3 G, [C,G,]3 G, | [G,,G,]2 [^G,,^G,]2 [A,,A,]2 [^F,,^F,]2 | %3
 [G,,G,]2 [G,CE]2 [G,CE]2 [G,,G,]2 | [C,C]6 z || G, x5 | [C,C]3 G, [C,C]3 G, | %7
 [G,,G,]2 [G,,F,]2 [C,E,]3 [G,,G,] | [C,G,]2 [C,C]2 [F,C]2 [F,D][E,C] | %9
 [D,A,]2 [D,D]2 [G,D]3 [G,B,] | [C,C]3 G, [C,C]3 G, | [G,,G,]2 [G,,F,]2 [C,E,]3 [G,,G,] | %12
 [C,G,]2 [C,A,]2 [C,G,]2 [C,G,][C,G,] | [D,G,]2 [D,^F,]2 [G,,G,]3 z | %14
 (G,,G,) (B,G,) (G,,G,) (_B,G,) | (G,,G,) (B,G,) (G,,G,B,)G, | (C,G,) (CG,) (C,A,) (CA,) | %17
 (C,G,) (A,B,) C3 [C,C] | [E,B,]2 [E,B,]2 [B,,B,]3 [B,,B,] | [E,B,]2 [E,B,]2 [B,,B,]3 [B,,A,] | %20
 [E,^G,]2 [^F,A,]2 [G,B,]2 [^G,,B,][A,,^C] | [B,,B,]2 [B,,A,]2{E,E,E,} [E,^G,]4({E,E,E,} x3 | %22
[M:6/8] [G,,G,] [A,,A,][G,,G,] [F,,F,][E,,E,]!fermata![D,,D,]) |: [C,,C,]3 [A,,,A,,]3 | [A,,,C,]6 | %25
 [F,,F,]3 [F,,F,]3 | [C,,C,]6 | [D,,D,]3 [D,,D,]3 | [G,,G,]3 [B,,,B,,]3 | [D,,D,]3 [D,,D,]3 | %30
 ([G,,G,][A,,A,][G,,G,] [F,,F,][E,,E,][D,,D,]) :| [F,,F,]3 [^F,,^F,]3 | [G,,G,]3 [A,,G,]3 | %33
 [D,,D,]3 !fermata![G,,,G,,]3 | (C,G,,E,, !fermata!C,,2) |] %35
V:5
 G, | x3 G, x2 G, x | x8 | x8 | x7 || G, x5 | x3 G, x2 G, x | x8 | x8 | x8 | x3 G, x2 G, x | x8 | %12
 x8 | x8 | x8 | x8 | x8 | x8 | x8 | x8 | x8 | x11 |[M:6/8] x6 |: x6 | x6 | x6 | x6 | x6 | x6 | x6 | %30
 x6 :| x6 | x6 | x6 | x5 |] %35

